M05 S0

(Generated by ReadyMotionControl.com)
(START)
G90
G21
G01 F3000
G01 X37.6385 Y250.9838

(PWM ON -START) 
M03 S1000
G4 P0
(PWM ON -END)

G01 F250.000000
G01 X37.6385 Y248.2863

(PWM OFF -START) 
G4 P0 
M05 S0
G01 F3000
(PWM OFF -END)

G01 X37.6385 Y243.8954

(PWM ON -START) 
M03 S1000
G4 P0
(PWM ON -END)

G01 F250.000000
G01 X37.6385 Y241.1978

(PWM OFF -START) 
G4 P0 
M05 S0
G01 F3000
(PWM OFF -END)

G01 X37.6385 Y237.4961

(PWM ON -START) 
M03 S1000
G4 P0
(PWM ON -END)

G01 F250.000000
G01 X37.6385 Y234.7985

(PWM OFF -START) 
G4 P0 
M05 S0
G01 F3000
(PWM OFF -END)

G01 X37.6385 Y232.1189

(PWM ON -START) 
M03 S1000
G4 P0
(PWM ON -END)

G01 F250.000000
G01 X18.959 Y221.3107
G01 X0.2698 Y232.1009
G01 X0.2698 Y253.6813
G01 X18.959 Y264.4716
G01 X37.6385 Y253.7001

(PWM OFF -START) 
G4 P0 
M05 S0
G01 F3000
(PWM OFF -END)

G01 X37.6385 Y253.7001

(PWM ON -START) 
M03 S1000
G4 P0
(PWM ON -END)

G01 F250.000000
G01 X22.4823 Y268.8469
G01 X0.808 Y268.9402
G01 X0.808 Y290.5206
G01 X22.3885 Y290.3885
G01 X37.4605 Y305.5937
G01 X93.9588 Y305.7814
G01 X109.39 Y290.615
G01 X131.0643 Y290.5206
G01 X131.0643 Y268.9402
G01 X109.4839 Y269.0734
G01 X94.2234 Y253.6821

(PWM OFF -START) 
G4 P0 
M05 S0
G01 F3000
(PWM OFF -END)

G01 X94.2234 Y253.6821

(PWM ON -START) 
M03 S1000
G4 P0
(PWM ON -END)

G01 F250.000000
G01 X112.9134 Y264.4716
G01 X131.6026 Y253.6813
G01 X131.6026 Y232.1009
G01 X112.9134 Y221.3107
G01 X94.2234 Y232.0823

(PWM OFF -START) 
G4 P0 
M05 S0
G01 F3000
(PWM OFF -END)

G01 X90.8367 Y232.0823

(PWM ON -START) 
M03 S1000
G4 P0
(PWM ON -END)

G01 F250.000000
G01 X83.7636 Y232.0869

(PWM OFF -START) 
G4 P0 
M05 S0
G01 F3000
(PWM OFF -END)

G01 X76.6905 Y232.0915

(PWM ON -START) 
M03 S1000
G4 P0
(PWM ON -END)

G01 F250.000000
G01 X69.6174 Y232.0961

(PWM OFF -START) 
G4 P0 
M05 S0
G01 F3000
(PWM OFF -END)

G01 X62.5443 Y232.1006

(PWM ON -START) 
M03 S1000
G4 P0
(PWM ON -END)

G01 F250.000000
G01 X55.4712 Y232.1052

(PWM OFF -START) 
G4 P0 
M05 S0
G01 F3000
(PWM OFF -END)

G01 X48.3981 Y232.1098

(PWM ON -START) 
M03 S1000
G4 P0
(PWM ON -END)

G01 F250.000000
G01 X41.325 Y232.1143

(PWM OFF -START) 
G4 P0 
M05 S0
G01 F3000
(PWM OFF -END)

G01 X43.2561 Y253.6956

(PWM ON -START) 
M03 S1000
G4 P0
(PWM ON -END)

G01 F250.000000
G01 X49.6274 Y253.6945

(PWM OFF -START) 
G4 P0 
M05 S0
G01 F3000
(PWM OFF -END)

G01 X55.9986 Y253.6934

(PWM ON -START) 
M03 S1000
G4 P0
(PWM ON -END)

G01 F250.000000
G01 X62.3699 Y253.6922

(PWM OFF -START) 
G4 P0 
M05 S0
G01 F3000
(PWM OFF -END)

G01 X68.7412 Y253.6911

(PWM ON -START) 
M03 S1000
G4 P0
(PWM ON -END)

G01 F250.000000
G01 X75.0994 Y253.69

(PWM OFF -START) 
G4 P0 
M05 S0
G01 F3000
(PWM OFF -END)

G01 X81.4575 Y253.6888

(PWM ON -START) 
M03 S1000
G4 P0
(PWM ON -END)

G01 F250.000000
G01 X87.8156 Y253.6877

(PWM OFF -START) 
G4 P0 
M05 S0
G01 F3000
(PWM OFF -END)

G01 X94.2234 Y248.2862

(PWM ON -START) 
M03 S1000
G4 P0
(PWM ON -END)

G01 F250.000000
G01 X94.2234 Y250.9838

(PWM OFF -START) 
G4 P0 
M05 S0
G01 F3000
(PWM OFF -END)

G01 X94.2234 Y242.3267

(PWM ON -START) 
M03 S1000
G4 P0
(PWM ON -END)

G01 F250.000000
G01 X94.2234 Y245.0242

(PWM OFF -START) 
G4 P0 
M05 S0
G01 F3000
(PWM OFF -END)

G01 X94.2234 Y236.3671

(PWM ON -START) 
M03 S1000
G4 P0
(PWM ON -END)

G01 F250.000000
G01 X94.2234 Y239.0647

(PWM OFF -START) 
G4 P0 
M05 S0
G01 F3000
(PWM OFF -END)

G01 X109.2962 Y217.029

(PWM ON -START) 
M03 S1000
G4 P0
(PWM ON -END)

G01 F250.000000
G01 X94.2234 Y232.0823

(PWM OFF -START) 
G4 P0 
M05 S0
G01 F3000
(PWM OFF -END)

G01 X109.4839 Y216.8414

(PWM ON -START) 
M03 S1000
G4 P0
(PWM ON -END)

G01 F250.000000
G01 X131.0644 Y216.8414
G01 X131.0644 Y195.1284
G01 X109.4839 Y195.2611
G01 X94.0919 Y180.0159

(PWM OFF -START) 
G4 P0 
M05 S0
G01 F3000
(PWM OFF -END)

G01 X90.4199 Y180.0139

(PWM ON -START) 
M03 S1000
G4 P0
(PWM ON -END)

G01 F250.000000
G01 X83.3612 Y180.0119

(PWM OFF -START) 
G4 P0 
M05 S0
G01 F3000
(PWM OFF -END)

G01 X76.3025 Y180.0099

(PWM ON -START) 
M03 S1000
G4 P0
(PWM ON -END)

G01 F250.000000
G01 X69.2438 Y180.008

(PWM OFF -START) 
G4 P0 
M05 S0
G01 F3000
(PWM OFF -END)

G01 X62.1851 Y180.006

(PWM ON -START) 
M03 S1000
G4 P0
(PWM ON -END)

G01 F250.000000
G01 X55.1264 Y180.004

(PWM OFF -START) 
G4 P0 
M05 S0
G01 F3000
(PWM OFF -END)

G01 X48.0677 Y180.002

(PWM ON -START) 
M03 S1000
G4 P0
(PWM ON -END)

G01 F250.000000
G01 X41.009 Y180.0001

(PWM OFF -START) 
G4 P0 
M05 S0
G01 F3000
(PWM OFF -END)

G01 X37.6223 Y180.0001

(PWM ON -START) 
M03 S1000
G4 P0
(PWM ON -END)

G01 F250.000000
G01 X22.3959 Y195.253
G01 X0.8081 Y195.261
G01 X0.8081 Y216.8414
G01 X22.3885 Y216.8414

(PWM OFF -START) 
G4 P0 
M05 S0
G01 F3000
(PWM OFF -END)

G01 X22.3021 Y216.8785

(PWM ON -START) 
M03 S1000
G4 P0
(PWM ON -END)

G01 F250.000000
G01 X37.6385 Y232.119

(PWM OFF -START) 
G4 P0 
M05 S0
G01 F3000
(PWM OFF -END)

G01 X22.3885 Y213.5794

(PWM ON -START) 
M03 S1000
G4 P0
(PWM ON -END)

G01 F250.000000
G01 X22.3885 Y210.8819

(PWM OFF -START) 
G4 P0 
M05 S0
G01 F3000
(PWM OFF -END)

G01 X22.3885 Y208.1843

(PWM ON -START) 
M03 S1000
G4 P0
(PWM ON -END)

G01 F250.000000
G01 X22.3885 Y205.4867

(PWM OFF -START) 
G4 P0 
M05 S0
G01 F3000
(PWM OFF -END)

G01 X22.3885 Y202.7892

(PWM ON -START) 
M03 S1000
G4 P0
(PWM ON -END)

G01 F250.000000
G01 X22.3885 Y200.0916

(PWM OFF -START) 
G4 P0 
M05 S0
G01 F3000
(PWM OFF -END)

G01 X37.6223 Y180.0011

(PWM ON -START) 
M03 S1000
G4 P0
(PWM ON -END)

G01 F250.000000
G01 X18.959 Y190.7912
G01 X0.2698 Y180.001
G01 X0.2698 Y158.4206
G01 X18.959 Y147.6303
G01 X37.6223 Y158.3532

(PWM OFF -START) 
G4 P0 
M05 S0
G01 F3000
(PWM OFF -END)

G01 X41.009 Y158.3532

(PWM ON -START) 
M03 S1000
G4 P0
(PWM ON -END)

G01 F250.000000
G01 X48.0677 Y158.3649

(PWM OFF -START) 
G4 P0 
M05 S0
G01 F3000
(PWM OFF -END)

G01 X55.1264 Y158.3766

(PWM ON -START) 
M03 S1000
G4 P0
(PWM ON -END)

G01 F250.000000
G01 X62.1851 Y158.3883

(PWM OFF -START) 
G4 P0 
M05 S0
G01 F3000
(PWM OFF -END)

G01 X69.2438 Y158.4001

(PWM ON -START) 
M03 S1000
G4 P0
(PWM ON -END)

G01 F250.000000
G01 X76.3025 Y158.4118

(PWM OFF -START) 
G4 P0 
M05 S0
G01 F3000
(PWM OFF -END)

G01 X83.3612 Y158.4235

(PWM ON -START) 
M03 S1000
G4 P0
(PWM ON -END)

G01 F250.000000
G01 X90.4199 Y158.4352

(PWM OFF -START) 
G4 P0 
M05 S0
G01 F3000
(PWM OFF -END)

G01 X94.0919 Y158.447

(PWM ON -START) 
M03 S1000
G4 P0
(PWM ON -END)

G01 F250.000000
G01 X112.9134 Y147.6303
G01 X131.6026 Y158.4205
G01 X131.6026 Y180.001
G01 X112.9134 Y190.7912
G01 X94.0919 Y180.0159

(PWM OFF -START) 
G4 P0 
M05 S0
G01 F3000
(PWM OFF -END)

G01 X94.0919 Y173.477

(PWM ON -START) 
M03 S1000
G4 P0
(PWM ON -END)

G01 F250.000000
G01 X94.0919 Y176.1746

(PWM OFF -START) 
G4 P0 
M05 S0
G01 F3000
(PWM OFF -END)

G01 X94.0919 Y168.0819

(PWM ON -START) 
M03 S1000
G4 P0
(PWM ON -END)

G01 F250.000000
G01 X94.0919 Y170.7795

(PWM OFF -START) 
G4 P0 
M05 S0
G01 F3000
(PWM OFF -END)

G01 X94.0919 Y162.6868

(PWM ON -START) 
M03 S1000
G4 P0
(PWM ON -END)

G01 F250.000000
G01 X94.0919 Y165.3843

(PWM OFF -START) 
G4 P0 
M05 S0
G01 F3000
(PWM OFF -END)

G01 X109.3431 Y136.2786

(PWM ON -START) 
M03 S1000
G4 P0
(PWM ON -END)

G01 F250.000000
G01 X109.3196 Y138.9665

(PWM OFF -START) 
G4 P0 
M05 S0
G01 F3000
(PWM OFF -END)

G01 X109.39 Y130.903

(PWM ON -START) 
M03 S1000
G4 P0
(PWM ON -END)

G01 F250.000000
G01 X109.3665 Y133.5908

(PWM OFF -START) 
G4 P0 
M05 S0
G01 F3000
(PWM OFF -END)

G01 X109.4369 Y125.5273

(PWM ON -START) 
M03 S1000
G4 P0
(PWM ON -END)

G01 F250.000000
G01 X109.4134 Y128.2151

(PWM OFF -START) 
G4 P0 
M05 S0
G01 F3000
(PWM OFF -END)

G01 X109.4839 Y121.846

(PWM ON -START) 
M03 S1000
G4 P0
(PWM ON -END)

G01 F250.000000
G01 X94.2174 Y106.325

(PWM OFF -START) 
G4 P0 
M05 S0
G01 F3000
(PWM OFF -END)

G01 X94.2242 Y106.3207

(PWM ON -START) 
M03 S1000
G4 P0
(PWM ON -END)

G01 F250.000000
G01 X94.2174 Y106.325

(PWM OFF -START) 
G4 P0 
M05 S0
G01 F3000
(PWM OFF -END)

G01 X90.8308 Y106.325

(PWM ON -START) 
M03 S1000
G4 P0
(PWM ON -END)

G01 F250.000000
G01 X83.7458 Y106.3294

(PWM OFF -START) 
G4 P0 
M05 S0
G01 F3000
(PWM OFF -END)

G01 X76.6609 Y106.3338

(PWM ON -START) 
M03 S1000
G4 P0
(PWM ON -END)

G01 F250.000000
G01 X69.576 Y106.3383

(PWM OFF -START) 
G4 P0 
M05 S0
G01 F3000
(PWM OFF -END)

G01 X62.4911 Y106.3427

(PWM ON -START) 
M03 S1000
G4 P0
(PWM ON -END)

G01 F250.000000
G01 X55.4061 Y106.3471

(PWM OFF -START) 
G4 P0 
M05 S0
G01 F3000
(PWM OFF -END)

G01 X48.3212 Y106.3515

(PWM ON -START) 
M03 S1000
G4 P0
(PWM ON -END)

G01 F250.000000
G01 X41.2363 Y106.356

(PWM OFF -START) 
G4 P0 
M05 S0
G01 F3000
(PWM OFF -END)

G01 X37.538 Y106.3604

(PWM ON -START) 
M03 S1000
G4 P0
(PWM ON -END)

G01 F250.000000
G01 X18.959 Y117.1109
G01 X0.2698 Y106.3207
G01 X0.2698 Y84.7402
G01 X18.959 Y73.95
G01 X37.6326 Y84.7667

(PWM OFF -START) 
G4 P0 
M05 S0
G01 F3000
(PWM OFF -END)

G01 X41.3173 Y84.7615

(PWM ON -START) 
M03 S1000
G4 P0
(PWM ON -END)

G01 F250.000000
G01 X48.3886 Y84.7563

(PWM OFF -START) 
G4 P0 
M05 S0
G01 F3000
(PWM OFF -END)

G01 X55.46 Y84.7511

(PWM ON -START) 
M03 S1000
G4 P0
(PWM ON -END)

G01 F250.000000
G01 X62.5313 Y84.7458

(PWM OFF -START) 
G4 P0 
M05 S0
G01 F3000
(PWM OFF -END)

G01 X69.6026 Y84.7406

(PWM ON -START) 
M03 S1000
G4 P0
(PWM ON -END)

G01 F250.000000
G01 X76.674 Y84.7354

(PWM OFF -START) 
G4 P0 
M05 S0
G01 F3000
(PWM OFF -END)

G01 X83.7453 Y84.7302

(PWM ON -START) 
M03 S1000
G4 P0
(PWM ON -END)

G01 F250.000000
G01 X90.8166 Y84.725

(PWM OFF -START) 
G4 P0 
M05 S0
G01 F3000
(PWM OFF -END)

G01 X94.2033 Y84.725

(PWM ON -START) 
M03 S1000
G4 P0
(PWM ON -END)

G01 F250.000000
G01 X109.3901 Y69.4806
G01 X131.0643 Y69.3868
G01 X131.0643 Y47.9001
G01 X109.4839 Y48.0328
G01 X94.2447 Y32.6289
G01 X112.9134 Y43.4306
G01 X131.6026 Y32.6404
G01 X131.6026 Y11.06
G01 X112.9134 Y0.2697
G01 X94.2447 Y11.0601
G01 X37.6486 Y11.0601
G01 X18.959 Y0.2697
G01 X0.2698 Y11.06
G01 X0.2698 Y32.6404
G01 X18.959 Y43.4306
G01 X37.6486 Y32.6932
G01 X22.4823 Y47.8533
G01 X0.808 Y47.947
G01 X0.808 Y69.5469
G01 X22.3885 Y69.4142
G01 X37.6326 Y84.7667

(PWM OFF -START) 
G4 P0 
M05 S0
G01 F3000
(PWM OFF -END)

G01 X37.6367 Y91.7308

(PWM ON -START) 
M03 S1000
G4 P0
(PWM ON -END)

G01 F250.000000
G01 X37.6367 Y89.0332

(PWM OFF -START) 
G4 P0 
M05 S0
G01 F3000
(PWM OFF -END)

G01 X37.6367 Y97.1259

(PWM ON -START) 
M03 S1000
G4 P0
(PWM ON -END)

G01 F250.000000
G01 X37.6367 Y94.4283

(PWM OFF -START) 
G4 P0 
M05 S0
G01 F3000
(PWM OFF -END)

G01 X37.6367 Y102.521

(PWM ON -START) 
M03 S1000
G4 P0
(PWM ON -END)

G01 F250.000000
G01 X37.6367 Y99.8234

(PWM OFF -START) 
G4 P0 
M05 S0
G01 F3000
(PWM OFF -END)

G01 X22.5762 Y121.3928

(PWM ON -START) 
M03 S1000
G4 P0
(PWM ON -END)

G01 F250.000000
G01 X37.538 Y106.3604

(PWM OFF -START) 
G4 P0 
M05 S0
G01 F3000
(PWM OFF -END)

G01 X22.5761 Y121.393

(PWM ON -START) 
M03 S1000
G4 P0
(PWM ON -END)

G01 F250.000000
G01 X0.8079 Y121.846
G01 X0.6203 Y143.3488
G01 X22.3884 Y142.8957
G01 X37.6223 Y158.3532

(PWM OFF -START) 
G4 P0 
M05 S0
G01 F3000
(PWM OFF -END)

G01 X37.6223 Y165.3843

(PWM ON -START) 
M03 S1000
G4 P0
(PWM ON -END)

G01 F250.000000
G01 X37.6223 Y162.6868

(PWM OFF -START) 
G4 P0 
M05 S0
G01 F3000
(PWM OFF -END)

G01 X37.6223 Y170.7795

(PWM ON -START) 
M03 S1000
G4 P0
(PWM ON -END)

G01 F250.000000
G01 X37.6223 Y168.0819

(PWM OFF -START) 
G4 P0 
M05 S0
G01 F3000
(PWM OFF -END)

G01 X37.6223 Y176.1746

(PWM ON -START) 
M03 S1000
G4 P0
(PWM ON -END)

G01 F250.000000
G01 X37.6223 Y173.477

(PWM OFF -START) 
G4 P0 
M05 S0
G01 F3000
(PWM OFF -END)

G01 X22.4119 Y139.079

(PWM ON -START) 
M03 S1000
G4 P0
(PWM ON -END)

G01 F250.000000
G01 X22.4353 Y136.3911

(PWM OFF -START) 
G4 P0 
M05 S0
G01 F3000
(PWM OFF -END)

G01 X22.4588 Y133.7033

(PWM ON -START) 
M03 S1000
G4 P0
(PWM ON -END)

G01 F250.000000
G01 X22.4822 Y131.0154

(PWM OFF -START) 
G4 P0 
M05 S0
G01 F3000
(PWM OFF -END)

G01 X22.5057 Y128.3276

(PWM ON -START) 
M03 S1000
G4 P0
(PWM ON -END)

G01 F250.000000
G01 X22.5292 Y125.6397

(PWM OFF -START) 
G4 P0 
M05 S0
G01 F3000
(PWM OFF -END)

G01 X22.4354 Y62.7106

(PWM ON -START) 
M03 S1000
G4 P0
(PWM ON -END)

G01 F250.000000
G01 X22.412 Y65.3985

(PWM OFF -START) 
G4 P0 
M05 S0
G01 F3000
(PWM OFF -END)

G01 X22.4823 Y57.3349

(PWM ON -START) 
M03 S1000
G4 P0
(PWM ON -END)

G01 F250.000000
G01 X22.4589 Y60.0227

(PWM OFF -START) 
G4 P0 
M05 S0
G01 F3000
(PWM OFF -END)

G01 X22.5292 Y51.9592

(PWM ON -START) 
M03 S1000
G4 P0
(PWM ON -END)

G01 F250.000000
G01 X22.5058 Y54.6471

(PWM OFF -START) 
G4 P0 
M05 S0
G01 F3000
(PWM OFF -END)

G01 X37.6486 Y26.1166

(PWM ON -START) 
M03 S1000
G4 P0
(PWM ON -END)

G01 F250.000000
G01 X37.6486 Y28.8142

(PWM OFF -START) 
G4 P0 
M05 S0
G01 F3000
(PWM OFF -END)

G01 X37.6486 Y20.7215

(PWM ON -START) 
M03 S1000
G4 P0
(PWM ON -END)

G01 F250.000000
G01 X37.6486 Y23.4191

(PWM OFF -START) 
G4 P0 
M05 S0
G01 F3000
(PWM OFF -END)

G01 X37.6486 Y15.3264

(PWM ON -START) 
M03 S1000
G4 P0
(PWM ON -END)

G01 F250.000000
G01 X37.6486 Y18.0239

(PWM OFF -START) 
G4 P0 
M05 S0
G01 F3000
(PWM OFF -END)

G01 X48.4275 Y32.7138

(PWM ON -START) 
M03 S1000
G4 P0
(PWM ON -END)

G01 F250.000000
G01 X41.3455 Y32.7299

(PWM OFF -START) 
G4 P0 
M05 S0
G01 F3000
(PWM OFF -END)

G01 X62.5916 Y32.6817

(PWM ON -START) 
M03 S1000
G4 P0
(PWM ON -END)

G01 F250.000000
G01 X55.5096 Y32.6977

(PWM OFF -START) 
G4 P0 
M05 S0
G01 F3000
(PWM OFF -END)

G01 X76.7557 Y32.6495

(PWM ON -START) 
M03 S1000
G4 P0
(PWM ON -END)

G01 F250.000000
G01 X69.6737 Y32.6656

(PWM OFF -START) 
G4 P0 
M05 S0
G01 F3000
(PWM OFF -END)

G01 X90.9198 Y32.6173

(PWM ON -START) 
M03 S1000
G4 P0
(PWM ON -END)

G01 F250.000000
G01 X83.8377 Y32.6334

(PWM OFF -START) 
G4 P0 
M05 S0
G01 F3000
(PWM OFF -END)

G01 X94.2447 Y26.1164

(PWM ON -START) 
M03 S1000
G4 P0
(PWM ON -END)

G01 F250.000000
G01 X94.2447 Y28.814

(PWM OFF -START) 
G4 P0 
M05 S0
G01 F3000
(PWM OFF -END)

G01 X94.2447 Y20.7213

(PWM ON -START) 
M03 S1000
G4 P0
(PWM ON -END)

G01 F250.000000
G01 X94.2447 Y23.4189

(PWM OFF -START) 
G4 P0 
M05 S0
G01 F3000
(PWM OFF -END)

G01 X94.2447 Y15.3262

(PWM ON -START) 
M03 S1000
G4 P0
(PWM ON -END)

G01 F250.000000
G01 X94.2447 Y18.0238

(PWM OFF -START) 
G4 P0 
M05 S0
G01 F3000
(PWM OFF -END)

G01 X109.4135 Y55.1001

(PWM ON -START) 
M03 S1000
G4 P0
(PWM ON -END)

G01 F250.000000
G01 X109.437 Y52.4123

(PWM OFF -START) 
G4 P0 
M05 S0
G01 F3000
(PWM OFF -END)

G01 X109.3666 Y60.4758

(PWM ON -START) 
M03 S1000
G4 P0
(PWM ON -END)

G01 F250.000000
G01 X109.3901 Y57.788

(PWM OFF -START) 
G4 P0 
M05 S0
G01 F3000
(PWM OFF -END)

G01 X109.3197 Y65.8515

(PWM ON -START) 
M03 S1000
G4 P0
(PWM ON -END)

G01 F250.000000
G01 X109.3432 Y63.1637

(PWM OFF -START) 
G4 P0 
M05 S0
G01 F3000
(PWM OFF -END)

G01 X94.2242 Y84.7402

(PWM ON -START) 
M03 S1000
G4 P0
(PWM ON -END)

G01 F250.000000
G01 X112.9134 Y73.95
G01 X131.6026 Y84.7402
G01 X131.6026 Y106.3207
G01 X112.9134 Y117.1109
G01 X94.2242 Y106.3207

(PWM OFF -START) 
G4 P0 
M05 S0
G01 F3000
(PWM OFF -END)

G01 X94.2242 Y99.7967

(PWM ON -START) 
M03 S1000
G4 P0
(PWM ON -END)

G01 F250.000000
G01 X94.2242 Y102.4942

(PWM OFF -START) 
G4 P0 
M05 S0
G01 F3000
(PWM OFF -END)

G01 X94.2242 Y94.4016

(PWM ON -START) 
M03 S1000
G4 P0
(PWM ON -END)

G01 F250.000000
G01 X94.2242 Y97.0991

(PWM OFF -START) 
G4 P0 
M05 S0
G01 F3000
(PWM OFF -END)

G01 X94.2242 Y89.0065

(PWM ON -START) 
M03 S1000
G4 P0
(PWM ON -END)

G01 F250.000000
G01 X94.2242 Y91.704

(PWM OFF -START) 
G4 P0 
M05 S0
G01 F3000
(PWM OFF -END)

G01 X109.4838 Y121.846

(PWM ON -START) 
M03 S1000
G4 P0
(PWM ON -END)

G01 F250.000000
G01 X131.2519 Y121.3929
G01 X146.5893 Y106.3209
G01 X168.0921 Y106.5086
G01 X183.1641 Y121.846
G01 X182.9764 Y143.3487
G01 X167.639 Y158.4208
G01 X146.1363 Y158.2331
G01 X131.0642 Y142.8957
G01 X109.2961 Y143.3487
G01 X94.0919 Y158.447

(PWM OFF -START) 
G4 P0 
M05 S0
G01 F3000
(PWM OFF -END)

G01 X131.0878 Y139.6434

(PWM ON -START) 
M03 S1000
G4 P0
(PWM ON -END)

G01 F250.000000
G01 X131.1113 Y136.9556

(PWM OFF -START) 
G4 P0 
M05 S0
G01 F3000
(PWM OFF -END)

G01 X131.1347 Y134.2677

(PWM ON -START) 
M03 S1000
G4 P0
(PWM ON -END)

G01 F250.000000
G01 X131.1582 Y131.5799

(PWM OFF -START) 
G4 P0 
M05 S0
G01 F3000
(PWM OFF -END)

G01 X131.1816 Y128.892

(PWM ON -START) 
M03 S1000
G4 P0
(PWM ON -END)

G01 F250.000000
G01 X131.2051 Y126.2042

(PWM OFF -START) 
G4 P0 
M05 S0
G01 F3000
(PWM OFF -END)

G01 X109.4839 Y200.0916

(PWM ON -START) 
M03 S1000
G4 P0
(PWM ON -END)

G01 F250.000000
G01 X109.4839 Y202.7892

(PWM OFF -START) 
G4 P0 
M05 S0
G01 F3000
(PWM OFF -END)

G01 X109.4839 Y205.4867

(PWM ON -START) 
M03 S1000
G4 P0
(PWM ON -END)

G01 F250.000000
G01 X109.4839 Y208.1843

(PWM OFF -START) 
G4 P0 
M05 S0
G01 F3000
(PWM OFF -END)

G01 X109.4839 Y210.8819

(PWM ON -START) 
M03 S1000
G4 P0
(PWM ON -END)

G01 F250.000000
G01 X109.4839 Y213.5794

(PWM OFF -START) 
G4 P0 
M05 S0
G01 F3000
(PWM OFF -END)

G01 X109.4839 Y273.2064

(PWM ON -START) 
M03 S1000
G4 P0
(PWM ON -END)

G01 F250.000000
G01 X109.4839 Y275.9039

(PWM OFF -START) 
G4 P0 
M05 S0
G01 F3000
(PWM OFF -END)

G01 X109.4839 Y278.6015

(PWM ON -START) 
M03 S1000
G4 P0
(PWM ON -END)

G01 F250.000000
G01 X109.4839 Y281.2991

(PWM OFF -START) 
G4 P0 
M05 S0
G01 F3000
(PWM OFF -END)

G01 X109.4839 Y283.9966

(PWM ON -START) 
M03 S1000
G4 P0
(PWM ON -END)

G01 F250.000000
G01 X109.4839 Y286.6942

(PWM OFF -START) 
G4 P0 
M05 S0
G01 F3000
(PWM OFF -END)

G01 X22.4354 Y283.7518

(PWM ON -START) 
M03 S1000
G4 P0
(PWM ON -END)

G01 F250.000000
G01 X22.4119 Y286.4396

(PWM OFF -START) 
G4 P0 
M05 S0
G01 F3000
(PWM OFF -END)

G01 X22.4823 Y278.3761

(PWM ON -START) 
M03 S1000
G4 P0
(PWM ON -END)

G01 F250.000000
G01 X22.4588 Y281.0639

(PWM OFF -START) 
G4 P0 
M05 S0
G01 F3000
(PWM OFF -END)

G01 X22.5292 Y273.0004

(PWM ON -START) 
M03 S1000
G4 P0
(PWM ON -END)

G01 F250.000000
G01 X22.5057 Y275.6882

(PWM OFF -START) 
G4 P0 
M05 S0
G01 F3000
(PWM OFF -END)


(END)
(Generated by ReadyMotionControl.com)
